resources/svg/major-card-reader-tap.svg

<svg xmlns="http://www.w3.org/2000/svg" viewBox="0 0 20 20" fill="currentColor"><path d="M2 8a6 6 0 0 1 6-6 1 1 0 0 0 0-2 8 8 0 0 0-8 8 1 1 0 0 0 2 0z"/><path d="M8 6a2 2 0 0 0-2 2 1 1 0 0 1-2 0 4 4 0 0 1 4-4 1 1 0 0 1 0 2zm7 0h-4.5a1.5 1.5 0 0 0-1.5 1.5v11a1.5 1.5 0 0 0 1.5 1.5h4.5v-14zm3.5 0a1.5 1.5 0 0 1 1.5 1.5v11a1.5 1.5 0 0 1-1.5 1.5h-1.5v-14h1.5z"/></svg>

<svg xmlns="http://www.w3.org/2000/svg" viewBox="0 0 20 20" fill="currentColor"><path d="M2 8a6 6 0 016-6 1 1 0 000-2 8 8 0 00-8 8 1 1 0 002 0z" fill="#5C5F62"/><path d="M8 6a2 2 0 00-2 2 1 1 0 01-2 0 4 4 0 014-4 1 1 0 010 2zM15 6h-4.5A1.5 1.5 0 009 7.5v11a1.5 1.5 0 001.5 1.5H15V6zM18.5 6A1.5 1.5 0 0120 7.5v11a1.5 1.5 0 01-1.5 1.5H17V6h1.5z" fill="#5C5F62"/></svg>
